icons/op-star-empty-24.svg

<svg width="24" height="24" viewBox="0 0 24 24" fill="none" xmlns="http://www.w3.org/2000/svg">
<path d="M7.61284 13.8596L6.42084 19.0213C6.38392 19.1776 6.395 19.3414 6.45263 19.4913C6.51026 19.6412 6.61175 19.7702 6.74385 19.8615C6.87596 19.9528 7.03253 20.0022 7.19312 20.0032C7.35371 20.0041 7.51086 19.9566 7.64404 19.8669L12.0001 16.9628L16.3561 19.8669C16.4924 19.9573 16.6531 20.0039 16.8166 20.0003C16.9801 19.9967 17.1386 19.9432 17.2708 19.8468C17.403 19.7504 17.5025 19.6159 17.5559 19.4613C17.6093 19.3067 17.6142 19.1395 17.5697 18.9821L16.1065 13.862L19.7353 10.5964C19.8515 10.4918 19.9345 10.3553 19.974 10.204C20.0136 10.0527 20.0079 9.89311 19.9576 9.745C19.9074 9.59689 19.8149 9.46674 19.6915 9.37066C19.5681 9.27458 19.4192 9.21678 19.2633 9.2044L14.7025 8.8412L12.7289 4.47238C12.6659 4.3317 12.5636 4.21224 12.4343 4.12842C12.305 4.0446 12.1542 4 12.0001 4C11.846 4 11.6951 4.0446 11.5658 4.12842C11.4365 4.21224 11.3342 4.3317 11.2713 4.47238L9.29765 8.8412L4.73683 9.2036C4.58359 9.21574 4.43709 9.27177 4.31487 9.36499C4.19264 9.45821 4.09986 9.58466 4.04762 9.72923C3.99538 9.8738 3.98589 10.0304 4.0203 10.1802C4.0547 10.33 4.13154 10.4667 4.24162 10.574L7.61284 13.8596ZM9.89526 10.3988C10.0381 10.3876 10.1752 10.3381 10.2923 10.2556C10.4094 10.1731 10.5022 10.0607 10.5609 9.93001L12.0001 6.74519L13.4393 9.93001C13.498 10.0607 13.5907 10.1731 13.7078 10.2556C13.8249 10.3381 13.9621 10.3876 14.1049 10.3988L17.2825 10.6508L14.6657 13.006C14.4385 13.2108 14.3481 13.526 14.4313 13.8204L15.4337 17.3285L12.4449 15.3356C12.3137 15.2476 12.1593 15.2006 12.0013 15.2006C11.8433 15.2006 11.6889 15.2476 11.5577 15.3356L8.43445 17.4181L9.27445 13.7812C9.30525 13.6475 9.30112 13.508 9.26245 13.3763C9.22378 13.2446 9.15187 13.1251 9.05365 13.0292L6.62324 10.6596L9.89526 10.3988Z" fill="black"/>
</svg>

<svg xmlns="http://www.w3.org/2000/svg" width="24" height="24" viewBox="0 0 24 24"><path d="m7.613 13.86-1.192 5.161a.794.794 0 0 0 .323.84.794.794 0 0 0 .9.006L12 16.963l4.356 2.904a.8.8 0 0 0 1.214-.885l-1.463-5.12 3.628-3.266a.796.796 0 0 0 .223-.851.807.807 0 0 0-.695-.541l-4.56-.363-1.974-4.369a.8.8 0 0 0-1.458 0L9.298 8.841l-4.561.363a.8.8 0 0 0-.495 1.37l3.371 3.286Zm2.282-3.461a.8.8 0 0 0 .666-.469L12 6.745l1.439 3.185a.805.805 0 0 0 .666.469l3.177.252-2.616 2.355a.8.8 0 0 0-.235.814l1.003 3.508-2.989-1.992a.797.797 0 0 0-.887 0l-3.124 2.082.84-3.637a.795.795 0 0 0-.22-.752L6.623 10.66l3.272-.261Z"/></svg>
